src/assets/images/share-icon.svg

<svg width="19" height="19" viewBox="0 0 19 19" fill="none" xmlns="http://www.w3.org/2000/svg">
<g clip-path="url(#clip0_10277_2780)">
<path fill-rule="evenodd" clip-rule="evenodd" d="M7.8951 11.045C7.6315 10.7813 7.6315 10.354 7.8951 10.0904L14.3296 3.52012H10.868C10.4953 3.52012 10.193 3.21792 10.193 2.84512C10.193 2.47233 10.4952 2.17012 10.868 2.17012H15.9592C16.332 2.17012 16.6342 2.47233 16.6342 2.84512L16.6342 7.93629C16.6342 8.30909 16.332 8.61129 15.9592 8.61129C15.5864 8.61129 15.2842 8.30908 15.2842 7.93629L15.2842 4.47472L8.8497 11.045C8.5861 11.3086 8.15871 11.3086 7.8951 11.045Z" fill="#9FA6B2"/>
<path fill-rule="evenodd" clip-rule="evenodd" d="M4.9999 4.77505C4.37858 4.77505 3.8749 5.27873 3.8749 5.90005V14C3.8749 14.6214 4.37858 15.125 4.9999 15.125H13.0999C13.7212 15.125 14.2249 14.6214 14.2249 14V10.85C14.2249 10.4773 14.5271 10.175 14.8999 10.175C15.2727 10.175 15.5749 10.4773 15.5749 10.85V14C15.5749 15.367 14.4668 16.475 13.0999 16.475H4.9999C3.633 16.475 2.5249 15.367 2.5249 14V5.90005C2.5249 4.53314 3.633 3.42505 4.9999 3.42505H8.1499C8.52269 3.42505 8.8249 3.72726 8.8249 4.10005C8.8249 4.47284 8.52269 4.77505 8.1499 4.77505H4.9999Z" fill="#9FA6B2"/>
</g>
<defs>
<clipPath id="clip0_10277_2780">
<rect width="18" height="18" fill="white" transform="translate(0.5 0.5)"/>
</clipPath>
</defs>
</svg>

<svg xmlns="http://www.w3.org/2000/svg" width="19" height="19" fill="none"><g fill="#9FA6B2" fill-rule="evenodd" clip-path="url(#a)" clip-rule="evenodd"><path d="M7.895 11.045a.675.675 0 0 1 0-.955l6.435-6.57h-3.462a.675.675 0 0 1 0-1.35h5.091c.373 0 .675.302.675.675v5.091a.675.675 0 1 1-1.35 0V4.475l-6.434 6.57a.675.675 0 0 1-.955 0Z"/><path d="M5 4.775c-.621 0-1.125.504-1.125 1.125V14c0 .621.504 1.125 1.125 1.125h8.1c.621 0 1.125-.504 1.125-1.125v-3.15a.675.675 0 0 1 1.35 0V14a2.475 2.475 0 0 1-2.475 2.475H5A2.475 2.475 0 0 1 2.525 14V5.9A2.475 2.475 0 0 1 5 3.425h3.15a.675.675 0 0 1 0 1.35H5Z"/></g><defs><clipPath id="a"><path fill="#fff" d="M.5.5h18v18H.5z"/></clipPath></defs></svg>
